svg/u1f5ff.svg

<svg viewBox="0 0 128 128" xmlns="http://www.w3.org/2000/svg">
  <path d="M71.51,103.17l-6.77,19.25c0,0,14.23-0.19,18.37-0.61s11.81-3.11,13.05-7.25s-1.04-20.51-1.04-20.51 s6.22-1.66,9.12-4.97s2.07-8.7,1.86-12.43c-0.21-3.73-0.36-34.63-0.83-38.33c-0.71-5.52-2.69-10.57-6.01-14.29s-7.17-5.48-8.55-6.17 c-1.76-0.89-7.39-2.28-7.39-2.28L71.51,103.17z" fill="#615555"/>
  <path d="M33.32,26.02c-0.16,0.33-3.45,2.96-3.53,5.66c-0.08,2.71,0.41,4.89,0.74,6.73 c0.31,1.74,0.96,4.89,0.96,4.89l52.39-0.29c0,0,2.03-1.88,1.72-5.25c-0.49-5.42-2.79-8.13-4.84-10.59 c-2.05-2.46-28.48-6.48-28.48-6.48S33.4,25.86,33.32,26.02z" fill="#4A4240"/>
  <path d="M85.41,8.83c0,0,1.95,0.63,4.56,4.03c2.18,2.83,1.45,6.6,0.22,10.35c-0.99,3.03-3.25,7.42-6.34,6.75 c-2.51-0.54-12.39-3.65-20.33-4.87c-10.17-1.56-16.81-1.24-23.67,1.05c-6.52,2.17-10.05,5.55-10.05,5.55s-0.28-3.9,0.6-6.08 s10.24-6.75,10.24-6.75L85.41,8.83z" fill="#91837F"/>
  <path d="M78.53,22.66c3.69,0.37,6.32-2.29,7.52-6.54s0.9-6.13,0.35-6.78c-0.54-0.65-12.66-6.51-28.02-5.2 s-19.29,6.06-21.57,8.28c-3.92,3.81-6.66,10.52-6.46,13.4c0,0.06,2.28-4.37,17.03-6.1C64.15,17.76,74.18,22.23,78.53,22.66z" fill="#BFB3B3"/>
  <path d="M31.8,45.54c0,0-0.76-2.94-0.11-3.81c0.65-0.87,3.16-3.05,6.97-3.81c3.81-0.76,7.73,0.22,7.73,0.22 l14.27-4.9c0,0,0.98,1.42,1.74,3.05c0.76,1.63,1.74,5.12,1.74,5.12s1.03-1.49,4.29-2.47c3.27-0.98,8.77,0.43,8.77,0.43l3.06,26.22 c0,0-0.76,7.19-0.54,21.68c0.22,14.49,0.11,21.13-0.54,26.25c-0.28,2.19-2.25,7.51-10.78,8.82c-8.14,1.25-22.44,2.72-33.11,1.85 c-10.68-0.87-13.65-5.05-14.71-7.08c-1.09-2.1,0.44-7.99,0.44-7.99l5.55-5.41c0,0-2.83-19.61-2.94-20.15 C23.52,83.01,31.8,45.54,31.8,45.54z" fill="#948585"/>
  <path d="M84.44,42.99c-1.35-1.67-7.15-5.09-11.92-3.27c-4.98,1.91-7.51,8.2-5.88,13.43 c1.11,3.57,4.38,7.01,7.13,10.02c2.95,3.24,4.31,5.71,5.58,5.71s2.54-11.36,3.5-15.41S85.32,44.08,84.44,42.99z" fill="#BFB3B3"/>
  <path d="M65.53,40.21c0,0-0.79,0.4-1.19,0.16c-0.4-0.24-1-1.62-1-1.62S51.66,54.28,51.03,55.23 c-0.64,0.95-0.41,1.34-0.09,1.74c0.32,0.4,6.48-0.89,10.21,1.88c3.89,2.9,4.04,8.55,2.53,10.7c-1.51,2.14-6.13,2.29-9.16,0.05 c-1.49-1.1-7.94-4.47-16.05-4.47c-3.38,0-9.35,0.58-9.35,0.58l-3.62,3.32l3.57,5l14.35,5.12l2.12-3.4c0,0,12.46,1.31,16.65,0.61 s7.64-4.06,6.91-10.4c-0.67-5.8-4.68-8.35-6.63-12.84c-1.68-3.88,0.03-7.76,0.63-9.21C63.59,42.75,65.53,40.21,65.53,40.21z" fill="#615654"/>
  <path d="M46.95,81.24l8.34,3.62c0,0,4.67,1.11,5.31,2.45c0.41,0.85-0.06,2.39-2.28,1.75 c-1.28-0.37-7.23-2.02-8.99-2.45c-2.16-0.53-13.84-1.17-16.62-0.45c-2.09,0.54-4.82,2.69-6.34,2.32c-1.46-0.35-1.34-1.26-1.36-2.89 c-0.01-0.94,3.14-3.01,3.14-3.01l16.51-2.1L46.95,81.24z" fill="#615654"/>
  <path d="M30.67,89.41c-0.99,2.28,5.78,5.03,9.16,5.13c7.59,0.23,11.87-4.26,11.79-4.67 c-0.18-0.82-7.35-0.93-12.02-0.99C35.33,88.83,31.02,88.59,30.67,89.41z" fill="#615654"/>
  <path d="M49.97,64.91c1.22,0.45,4.51-0.35,7.56-1.87c3.05-1.53,4.65-2.57,4.58-3.26 c-0.07-0.69-2.08-2.36-4.72-2.64c-2.76-0.29-4.49,0.12-5.13,0.76C51.36,58.8,47.89,64.15,49.97,64.91z" fill="#BFB3B3"/>
  <path d="M41.91,67.56c-1.83,0.25-0.89,2.86,0,4.25c0.97,1.52,1.93,2.54,3.06,2.74 c1.13,0.2,6.78,0.27,6.72-1.6S44.37,67.23,41.91,67.56z" fill="#4A4240"/>
  <path d="M34.22,68.22c-1.03-0.34-3.25,1.56-3.49,2.32c-0.24,0.79,1.44,3.46,4.01,2.85 C36.55,72.97,35.13,68.52,34.22,68.22z" fill="#4A4240"/>
  <path d="M60.67,33.23c0.06,1.36-11.29,19.51-12.63,21.7c-1.34,2.19-4.53,7.43-5.47,8.26 c-1.15,1.03-5.01,2.1-7.03,2.25c-5.05,0.39-7.55,2.12-8.15,3.33s3.89,5.22,7.11,6.01c3.22,0.79,10.08,0.55,11.36,1.09 s3.82,2.72,5.82,3.88s4.74,3.11,4.68,4.14c-0.06,1.03-0.5,1.13-1.4,0.9c-1.06-0.27-5.53-1.62-8.19-1.93 c-4.83-0.56-11.92-0.81-15.97,0.23c-2.23,0.57-6.28,2.6-5.71,4.44c0.51,1.63,1.35,2.86,2.55,4.37c1.04,1.31,3.04,4.8,4.31,6.86 c1.28,2.06,3.77,5.46,8.61,5.81c5.64,0.41,7.84-2.41,10.46-5.94c2.61-3.52,4.13-7.17,7.83-6.74c3.7,0.43,4.49,5.04,5.16,8.32 c0.67,3.28,2.73,12.15,1.7,14.21c-1.03,2.06-2.73,2.25-5.77,2.79c-3.04,0.55-16.76,2.49-25.02,1.34s-13.42-3.82-13.91-6.59 c-0.49-2.77,0.67-3.92,0.85-9.26c0.18-5.34-0.42-30.23,1.95-40.44s6.37-15.76,8.74-17.64c2.37-1.88,7.27-3.76,8.33-3.19 c1.06,0.57-4.49,12.33-4.49,12.33s3.51-0.98,3.84-1.8c0.33-0.82,9.39-20.42,11.11-21.4c1.72-0.98,3.45-0.81,5.49-0.16 C58.88,31.09,60.67,33.23,60.67,33.23z" fill="#BFB3B3"/>
  <path d="M34.03,45.79c-1.16-0.77-2.86,0.41-3.59,1.96s-0.16,2.94,0.57,3.27s2.19-0.01,3.19-1.55 C35.09,48.07,35.25,46.6,34.03,45.79z" fill="#D4CCCD"/>
  <path d="M53.42,29.84c-3.55,0.02-5.3,1.83-7.18,5.08c-2.05,3.55-2.57,7.68-5.51,12.17 c-2.94,4.49-6.04,8.41-7.35,9.64c-1.31,1.23-4.17,4.74-2.29,6.37c1.88,1.63,4.49-0.9,6.29-3.19s5.55-9.23,7.43-12.17 c1.88-2.94,9.15-12.5,10.37-14.7C55.93,31.69,55.4,29.83,53.42,29.84z" fill="#D4CCCD"/>
  <path d="M32.88,76.09c-1.23-0.29-2.37-0.25-3.27,0.9c-0.9,1.14-1.08,2.67,0.16,3.1 c1.63,0.57,2.86,0,3.84-1.06C34.37,78.22,34.6,76.5,32.88,76.09z" fill="#D4CCCD"/>
  <path d="M35.17,110.14c-2.29,0.25-2.04,3.27-1.55,4.49s1.88,1.96,3.51,1.47c1.63-0.49,1.88-2.29,1.39-3.76 S37.28,109.92,35.17,110.14z" fill="#D4CCCD"/>
  <path d="M75.71,40.3c-2.41,0.08-3.31,0.76-4.13,2.34c-0.92,1.76,0.07,3.13,1.65,3.24 c1.93,0.14,3.17-0.41,4.34-2.34C78.41,42.16,77.78,40.23,75.71,40.3z" fill="#D4CCCD"/>
  <path d="M71.16,47.53c-1.1-0.1-1.58,0.41-1.79,1.17c-0.21,0.76,0.34,1.38,1.1,1.45 c0.76,0.07,1.38-0.41,1.65-1.03C72.4,48.5,71.92,47.6,71.16,47.53z" fill="#D4CCCD"/>
  <path d="M38.57,10.74c0,0,2.38-2.3,5.58-3.57c4.5-1.79,8.07-2.25,8.07-2.25s2.41-0.25,3.03,0.51 c0.79,0.96-0.62,2.27-0.62,2.27s2.07-0.28,2.62,0.76c0.55,1.03,0.14,2.69-2.34,2.76c-2.48,0.07-1.72-2.14-1.72-2.14 s-1.65,0.83-3.03,1.17c-1.38,0.34-3.17-0.07-3.17-0.07s-2.95,4.68-6.41,3.72C37.72,13.12,38.57,10.74,38.57,10.74z" fill="#D4CCCD"/>
  <path d="M35.31,18.82c0.85,0.81,2.53,0.43,3.43-0.95c0.91-1.38,0.81-2.81,0-3.43 c-0.81-0.62-2.34-0.14-3.19,0.95S34.3,17.87,35.31,18.82z" fill="#D4CCCD"/>
</svg>

<svg viewBox="0 0 128 128" xmlns="http://www.w3.org/2000/svg">
  <defs/>
  <path d="M71.51,103.17 L64.74,122.42 C64.74,122.42 78.97,122.23 83.11,121.81 C87.25,121.39 94.92,118.7 96.16,114.56 C97.4,110.42 95.12,94.05 95.12,94.05 C95.12,94.05 101.34,92.39 104.24,89.08 C107.14,85.77 106.31,80.38 106.1,76.65 C105.89,72.92 105.74,42.02 105.27,38.32 C104.56,32.8 102.58,27.75 99.26,24.03 C95.94,20.31 92.09,18.55 90.71,17.86 C88.95,16.97 83.32,15.58 83.32,15.58 L71.51,103.17 Z" fill="#615555"/>
  <path d="M33.32,26.02 C33.16,26.35 29.87,28.98 29.79,31.68 C29.71,34.39 30.2,36.57 30.53,38.41 C30.84,40.15 31.49,43.3 31.49,43.3 L83.88,43.01 C83.88,43.01 85.91,41.13 85.6,37.76 C85.11,32.34 82.81,29.63 80.76,27.17 C78.71,24.71 52.28,20.69 52.28,20.69 C52.28,20.69 33.4,25.86 33.32,26.02 Z" fill="#4A4240"/>
  <path d="M85.41,8.83 C85.41,8.83 87.36,9.46 89.97,12.86 C92.15,15.69 91.42,19.46 90.19,23.21 C89.2,26.24 86.94,30.63 83.85,29.96 C81.34,29.42 71.46,26.31 63.52,25.09 C53.35,23.53 46.71,23.85 39.85,26.14 C33.33,28.31 29.8,31.69 29.8,31.69 C29.8,31.69 29.52,27.79 30.4,25.61 C31.28,23.43 40.64,18.86 40.64,18.86 L85.41,8.83 Z" fill="#91837F"/>
  <path d="M78.53,22.66 C82.22,23.03 84.85,20.37 86.05,16.12 C87.25,11.87 86.95,9.99 86.4,9.34 C85.86,8.69 73.74,2.83 58.38,4.14 C43.02,5.45 39.09,10.2 36.81,12.42 C32.89,16.23 30.15,22.94 30.35,25.82 C30.35,25.88 32.63,21.45 47.38,19.72 C64.15,17.76 74.18,22.23 78.53,22.66 Z" fill="#BFB3B3"/>
  <path d="M31.8,45.54 C31.8,45.54 31.04,42.6 31.69,41.73 C32.34,40.86 34.85,38.68 38.66,37.92 C42.47,37.16 46.39,38.14 46.39,38.14 L60.66,33.24 C60.66,33.24 61.64,34.66 62.4,36.29 C63.16,37.92 64.14,41.41 64.14,41.41 C64.14,41.41 65.17,39.92 68.43,38.94 C71.7,37.96 77.2,39.37 77.2,39.37 L80.26,65.59 C80.26,65.59 79.5,72.78 79.72,87.27 C79.94,101.76 79.83,108.4 79.18,113.52 C78.9,115.71 76.93,121.03 68.4,122.34 C60.26,123.59 45.96,125.06 35.29,124.19 C24.61,123.32 21.64,119.14 20.58,117.11 C19.49,115.01 21.02,109.12 21.02,109.12 L26.57,103.71 C26.57,103.71 23.74,84.1 23.63,83.56 C23.52,83.01 31.8,45.54 31.8,45.54 Z" fill="#948585"/>
  <path d="M84.44,42.99 C83.09,41.32 77.29,37.9 72.52,39.72 C67.54,41.63 65.01,47.92 66.64,53.15 C67.75,56.72 71.02,60.16 73.77,63.17 C76.72,66.41 78.08,68.88 79.35,68.88 C80.62,68.88 81.89,57.52 82.85,53.47 C83.81,49.42 85.32,44.08 84.44,42.99 Z" fill="#BFB3B3"/>
  <path d="M65.53,40.21 C65.53,40.21 64.74,40.61 64.34,40.37 C63.94,40.13 63.34,38.75 63.34,38.75 C63.34,38.75 51.66,54.28 51.03,55.23 C50.39,56.18 50.62,56.57 50.94,56.97 C51.26,57.37 57.42,56.08 61.15,58.85 C65.04,61.75 65.19,67.4 63.68,69.55 C62.17,71.69 57.55,71.84 54.52,69.6 C53.03,68.5 46.58,65.13 38.47,65.13 C35.09,65.13 29.12,65.71 29.12,65.71 L25.5,69.03 L29.07,74.03 L43.42,79.15 L45.54,75.75 C45.54,75.75 58,77.06 62.19,76.36 C66.38,75.66 69.83,72.3 69.1,65.96 C68.43,60.16 64.42,57.61 62.47,53.12 C60.79,49.24 62.5,45.36 63.1,43.91 C63.59,42.75 65.53,40.21 65.53,40.21 Z" fill="#615654"/>
  <path d="M46.95,81.24 L55.29,84.86 C55.29,84.86 59.96,85.97 60.6,87.31 C61.01,88.16 60.54,89.7 58.32,89.06 C57.04,88.69 51.09,87.04 49.33,86.61 C47.17,86.08 35.49,85.44 32.71,86.16 C30.62,86.7 27.89,88.85 26.37,88.48 C24.91,88.13 25.03,87.22 25.01,85.59 C25,84.65 28.15,82.58 28.15,82.58 L44.66,80.48 L46.95,81.24 Z" fill="#615654"/>
  <path d="M30.67,89.41 C29.68,91.69 36.45,94.44 39.83,94.54 C47.42,94.77 51.7,90.28 51.62,89.87 C51.44,89.05 44.27,88.94 39.6,88.88 C35.33,88.83 31.02,88.59 30.67,89.41 Z" fill="#615654"/>
  <path d="M49.97,64.91 C51.19,65.36 54.48,64.56 57.53,63.04 C60.58,61.51 62.18,60.47 62.11,59.78 C62.04,59.09 60.03,57.42 57.39,57.14 C54.63,56.85 52.9,57.26 52.26,57.9 C51.36,58.8 47.89,64.15 49.97,64.91 Z" fill="#BFB3B3"/>
  <path d="M41.91,67.56 C40.08,67.81 41.02,70.42 41.91,71.81 C42.88,73.33 43.84,74.35 44.97,74.55 C46.1,74.75 51.75,74.82 51.69,72.95 C51.63,71.08 44.37,67.23 41.91,67.56 Z" fill="#4A4240"/>
  <path d="M34.22,68.22 C33.19,67.88 30.97,69.78 30.73,70.54 C30.49,71.33 32.17,74 34.74,73.39 C36.55,72.97 35.13,68.52 34.22,68.22 Z" fill="#4A4240"/>
  <path d="M60.67,33.23 C60.73,34.59 49.38,52.74 48.04,54.93 C46.7,57.12 43.51,62.36 42.57,63.19 C41.42,64.22 37.56,65.29 35.54,65.44 C30.49,65.83 27.99,67.56 27.39,68.77 C26.79,69.98 31.28,73.99 34.5,74.78 C37.72,75.57 44.58,75.33 45.86,75.87 C47.14,76.41 49.68,78.59 51.68,79.75 C53.68,80.91 56.42,82.86 56.36,83.89 C56.3,84.92 55.86,85.02 54.96,84.79 C53.9,84.52 49.43,83.17 46.77,82.86 C41.94,82.3 34.85,82.05 30.8,83.09 C28.57,83.66 24.52,85.69 25.09,87.53 C25.6,89.16 26.44,90.39 27.64,91.9 C28.68,93.21 30.68,96.7 31.95,98.76 C33.23,100.82 35.72,104.22 40.56,104.57 C46.2,104.98 48.4,102.16 51.02,98.63 C53.63,95.11 55.15,91.46 58.85,91.89 C62.55,92.32 63.34,96.93 64.01,100.21 C64.68,103.49 66.74,112.36 65.71,114.42 C64.68,116.48 62.98,116.67 59.94,117.21 C56.9,117.76 43.18,119.7 34.92,118.55 C26.66,117.4 21.5,114.73 21.01,111.96 C20.52,109.19 21.68,108.04 21.86,102.7 C22.04,97.36 21.44,72.47 23.81,62.26 C26.18,52.05 30.18,46.5 32.55,44.62 C34.92,42.74 39.82,40.86 40.88,41.43 C41.94,42 36.39,53.76 36.39,53.76 C36.39,53.76 39.9,52.78 40.23,51.96 C40.56,51.14 49.62,31.54 51.34,30.56 C53.06,29.58 54.79,29.75 56.83,30.4 C58.88,31.09 60.67,33.23 60.67,33.23 Z" fill="#BFB3B3"/>
  <path d="M34.03,45.79 C32.87,45.02 31.17,46.2 30.44,47.75 C29.71,49.3 30.28,50.69 31.01,51.02 C31.74,51.35 33.2,51.01 34.2,49.47 C35.09,48.07 35.25,46.6 34.03,45.79 Z" fill="#D4CCCD"/>
  <path d="M53.42,29.84 C49.87,29.86 48.12,31.67 46.24,34.92 C44.19,38.47 43.67,42.6 40.73,47.09 C37.79,51.58 34.69,55.5 33.38,56.73 C32.07,57.96 29.21,61.47 31.09,63.1 C32.97,64.73 35.58,62.2 37.38,59.91 C39.18,57.62 42.93,50.68 44.81,47.74 C46.69,44.8 53.96,35.24 55.18,33.04 C55.93,31.69 55.4,29.83 53.42,29.84 Z" fill="#D4CCCD"/>
  <path d="M32.88,76.09 C31.65,75.8 30.51,75.84 29.61,76.99 C28.71,78.13 28.53,79.66 29.77,80.09 C31.4,80.66 32.63,80.09 33.61,79.03 C34.37,78.22 34.6,76.5 32.88,76.09 Z" fill="#D4CCCD"/>
  <path d="M35.17,110.14 C32.88,110.39 33.13,113.41 33.62,114.63 C34.11,115.85 35.5,116.59 37.13,116.1 C38.76,115.61 39.01,113.81 38.52,112.34 C38.03,110.87 37.28,109.92 35.17,110.14 Z" fill="#D4CCCD"/>
  <path d="M75.71,40.3 C73.3,40.38 72.4,41.06 71.58,42.64 C70.66,44.4 71.65,45.77 73.23,45.88 C75.16,46.02 76.4,45.47 77.57,43.54 C78.41,42.16 77.78,40.23 75.71,40.3 Z" fill="#D4CCCD"/>
  <path d="M71.16,47.53 C70.06,47.43 69.58,47.94 69.37,48.7 C69.16,49.46 69.71,50.08 70.47,50.15 C71.23,50.22 71.85,49.74 72.12,49.12 C72.4,48.5 71.92,47.6 71.16,47.53 Z" fill="#D4CCCD"/>
  <path d="M38.57,10.74 C38.57,10.74 40.95,8.44 44.15,7.17 C48.65,5.38 52.22,4.92 52.22,4.92 C52.22,4.92 54.63,4.67 55.25,5.43 C56.04,6.39 54.63,7.7 54.63,7.7 C54.63,7.7 56.7,7.42 57.25,8.46 C57.8,9.49 57.39,11.15 54.91,11.22 C52.43,11.29 53.19,9.08 53.19,9.08 C53.19,9.08 51.54,9.91 50.16,10.25 C48.78,10.59 46.99,10.18 46.99,10.18 C46.99,10.18 44.04,14.86 40.58,13.9 C37.72,13.12 38.57,10.74 38.57,10.74 Z" fill="#D4CCCD"/>
  <path d="M35.31,18.82 C36.16,19.63 37.84,19.25 38.74,17.87 C39.65,16.49 39.55,15.06 38.74,14.44 C37.93,13.82 36.4,14.3 35.55,15.39 C34.7,16.48 34.3,17.87 35.31,18.82 Z" fill="#D4CCCD"/>
</svg>
